X: 209
T:Alldivaloch. JC.213
T:Roy's Wife Of,etc.aka. JC.213
M:2/4
L:1/16
Q:120
S:John Clare,Poet,Helpstone (1793-1864)
R:Air
O:England179
A:Northamptonshire
N:MR.No TS in Ms.Bars 1.20.the 1st note qu in Ms.Bar 9 left as MS.Bar
N:11.1st 4 notesQu's in Ms.Bar 14 3rd note qu in MS.Bar17 dot after 2nd
N:note in Ms is omitted.
N:No TS given: 2/4 adde
Z:vmp.P. Headford
K:D
AF3 F3 E|F3 E F d3|AF3 F3 D|E3 D E B3|\
A3 F F3 D|d3 e {e}f3 e|!
{e}d3 B {B}A3 F|{F}E3 D E F3|A|A3 d d3 f|\
(ed) (ef) d3 A|A3 d d3 F|E3 cD E F2 A|!
A3 d d3f|{g}(ed) {a}gf {g}e3 d|f3 e d3 F|\
F3 E F(A {e}d{c}B)|(AF3) F3 E|F3 E F d3|!
(AF3) F3D|{F}E3 D E B3|A3F F3 D|\
d3 e {e}f3 e|d3 B A3 F|E3 D E F3|]
W:Song text exists. See Deacon.|
